X:1
T:Title
%%score { ( 1 3 ) | 2 }
L:1/8
Q:1/4=100
M:4/4
K:Ab
V:1 treble nm="Grand Piano"
V:3 treble 
V:2 bass 
V:1
 [CE]2 [CE][DF] [DF]2 [CE]2 | [EA]2 B2 c4 | [Fd]2 [DF][Fd] [Ec]2 [Ec]2 | z2 [=DB]2 z4 | %4
w: L.~O.~Emerson * * * *||||
 [CE]2 [CE][DF] [DF]2 [CE]2 | [EA]2 B2 c4 | [Ec]2 [EB][EA] [FA]2 F2 | E2 B2 [CA]4 | c6 z2 | B4 z4 | %10
w: ||||||
 d6 z2 | c6 z2 | e6 z2 | B4 z4 |[M:9/8] c2 c- cBc d3/2G3/2 |[M:4/4] [CA]6 z2 |] %16
w: ||||||
V:2
 [A,,A,]2 [A,,A,][A,,A,] [A,,A,]2 [A,,A,]2 | [C,A,]2 [E,G,E]2 [A,E]4 | %2
 [D,A,]2 [D,A,][D,A,] [A,,A,]2 [A,,A,]2 | [E,G,]2 .[B,,F,]2 [E,G,D]4 | %4
 [A,,A,]2 [A,,A,][A,,A,] [A,,A,]2 [A,,A,]2 | [C,A,]2 [E,G,E]2 [A,E]4 | %6
 [A,,A,]2 [B,,G,][C,A,] [D,A,]2 [D,A,D]2 | [E,A,C]2 [E,G,D]2 [A,,A,]4 | %8
 [A,,A,][A,,E,][A,,F,][A,,G,] [A,,A,]2 z2 | [E,G,D][E,G,][E,G,][E,G,] [E,G,D]2 z2 | %10
 [E,G,E][E,G,][E,G,][E,G,] [E,G,]2 z2 | [A,,A,][A,,E,][A,,F,][A,,G,] [A,,A,]2 z2 | %12
 [C,A,][C,A,][C,A,][C,A,] [C,A,]2 z2 | [D,A,][D,A,][D,A,][C,=A,] [B,,B,]4 | %14
[M:9/8] [E,A,E]2 [E,A,E]- [E,A,E][D,G,E][E,A,E] [E,B,E]3/2[E,B,D]3/2 |[M:4/4] [A,,A,]6 z2 |] %16
V:3
 x8 | x8 | x8 | [EB]2 z A, B4 | x8 | x8 | x8 | x8 | EEEE E2 BA | z DDD E2 z2 | z EEE E2 cB | %11
 EEEE E2 z2 | EEEE E2 cA | FFF[Fc] [Fd]4 |[M:9/8] x9 |[M:4/4] x8 |] %16

